X:1
T:A minor Oliver Brownson, 1783
T:Isaac Watts, 1719 (Psalm 89, Part 1)       86. 86. (C. M.)
T:Bedford
T:Transcribed from Brownson's Select Harmony, 1783.
%%score [ 1 2 3 4 ]
L:1/8
Q:1/4=160
M:4/4
K:C
V:1 treble nm="Treble" snm="Tr."
V:2 treble nm="Counter" snm="C."
V:3 treble-8 nm="Tenor" snm="T."
V:4 bass nm="Bass" snm="B."
V:1
 A8 | c4 A4 | B4 (A2 G2) | A4 A4 | B4 B4 | e4 d4 | B4 (c2 A2) | ^G8- | G4 =G4 | G4 B4 | %10
w: 1.~My|ne- ver-|cea- sing *|songs shall|show The|mer- cies|of the *|Lord,~|_ And|make suc-|
 (c2 B2 c2 d2 | e4) (c2 B2) | c4 A4 | ^G4 (A2 B2) | c4 A4 | (c2 B2) (A2 G2) | A8 |] %17
w: cee- * * *|* ding *|a- ges|know How *|faith- ful|is * his *|word.|
V:2
 E8 | E4 E4 | G4 (D2 E2) | F4 A4 | G4 G4 | (E2 G2) (F2 D2) | E4 E4 | E8 | z4 E4 | E4 G4 | %10
w: 2.~The|sa- cred|truths his *|lips pro-|nounce Shall|firm * as *|heav'n en-|dure;|And|if he|
 (G2 F2 E4 | E4) E4 | E4 E4 | E4 D4 | G4 F4 | E4 E4 | E8 |] %17
w: speak~ _ _|_ a|pro- mise|once, Th'e-|ter- nal|grace is|sure.|
V:3
 A8 | A4 c4 | e4 (d2 c2) | d4 d4 | d4 e4 | c4 A4 | ^G4 A4 | B8 | z4 B4 | c4 d4 | (e2 d2 c2 A2 | %11
w: 3.~His|seed for-|ev- er *|shall pos-|sess A|throne a-|bove the|skies;|The|mea- nest|sub- * * *|
 B4) (A2 G2) | A4 c4 | B4 d4 | e4 d2 c2 | (e2 d2) (c2 B2) | A8 |] %17
w: * ject *|of his|grace Shall|to that *|glo- * ry *|rise.|
V:4
 A,8 | A,4 A,,4 | E,4 (F,2 E,2) | D,4 D,4 | G,4 E,4 | E,4 F,4 | E,4 A,,4 | E,8- | E,4 E,4 | %9
w: 4.~Lord|God of|hosts, thy *|won- drous|ways Are|sung by|saints a-|bove;~|_ And|
 C,4 G,4 | (G,4 A,4 | E,4) E,4 | A,,4 A,,4 | E,4 (F,2 D,2) | C,4 D,4 | E,4 E,4 | A,,8 |] %17
w: saints on|earth~ _|_ their|ho- nors|raise To *|thy un-|chan- ging|love.|

